X:1
T:Tommy Peoples'
R:jig
M:6/8
L:1/8
K:A
|:~A2A c2e|fec ecB|~A2A c2e|fec BAF|
|~A2A c2e|fec efa|baf ecA|BAB cAF:|
|:~a2a gag|faf efg|aea fec|fbb bae|
|~a2a gag|faf efg|~a2f ecA|BAB cAF:|
|:~A2f ecA|~c2c ecB|Acf ecA|BAB cAF|
|~A2f ecA|~c2c efa|baf ecA|BAB cAF:|